packages/icons/src/__generated__/nav/svg/nav-developerAPIProduct-24-active.svg

<svg xmlns="http://www.w3.org/2000/svg" fill="#1652F0" viewBox="0 0 24 24"><path d="M13.489 5.995v-4h8.5v8.5h-3.993v3h3.993v8.5h-8.5v-4h-3v4h-8.5v-8.5h4.007v-3H1.989v-8.5h8.5v4h3Zm2-2v2h2.507v2.5h1.993v-4.5h-4.5Zm-7 2v-2h-4.5v4.5h2.007v-2.5h2.493Zm-2.493 9.5H3.989v4.5h4.5v-2H5.996v-2.5Zm9.493 2.5v2h4.5v-4.5h-1.993v2.5h-2.507Z"/></svg>

<svg xmlns="http://www.w3.org/2000/svg" fill="#1652F0" viewBox="0 0 24 24"><path d="M13.5 6V2H22v8.5h-3.993v3H22V22h-8.5v-4h-3v4H2v-8.5h4.007v-3H2V2h8.5v4h3Zm2-2v2h2.507v2.5H20V4h-4.5Zm-7 2V4H4v4.5h2.007V6H8.5Zm-2.493 9.5H4V20h4.5v-2H6.007v-2.5ZM15.5 18v2H20v-4.5h-1.993V18H15.5Z"/></svg>
